!!! OTL: Berkowitz42
!!! Chapter: 1
!!! Section: I
!!! Page: 12
!!! Mode: 
!!! Encoder: DJB
**kern
*staff1
*I"Piano
=1-
*clefF4
*k[b-]
*d:
*M2/4
8D\L
8E\J
8D/L
8C#/J
=2
8D/L
8C#/J
8D\L
8E\J
=3
8D\L
8E\J
8F\L
8G\J
=4
2A\
=5
8B-\L
8A\J
8G\L
8A\J
=6
8B-\L
8A\J
8G\L
8F\J
=7
8E\L
8D\J
8C#\L
8E\J
=8
2D\
==
*-
